X: 14
T:Upton Stick
M:6/8
L:1/8
Q:80
S:Mally
R:Single jig
K:G
d|dBB BAG| AGA BGE|  DGG GBd| edB A3| dBB BAG| AGA BGE| DGG G2 B|AGA G2|
|
G| GBd g2 d|edc BAG| GBd g2 d| edB A3| GBd g2 d| edB ABd| ege dBG| AGA G
2||
%  ABC2Win Version 2.1 04/04/2001
